assets/img/search-icon.svg

<svg width="38" height="39" viewBox="0 0 38 39" fill="none" xmlns="http://www.w3.org/2000/svg">
<rect y="0.557129" width="37.5826" height="37.8857" rx="15.1667" fill="#FF5B35"/>
<mask id="mask0_1059_138" style="mask-type:luminance" maskUnits="userSpaceOnUse" x="11" y="11" width="15" height="16">
<path fill-rule="evenodd" clip-rule="evenodd" d="M11.3638 11.0646H25.447V26.2774H11.3638V11.0646Z" fill="white"/>
</mask>
<g mask="url(#mask0_1059_138)">
<path fill-rule="evenodd" clip-rule="evenodd" d="M18.4055 12.2362C15.1206 12.2362 12.4481 15.1222 12.4481 18.6706C12.4481 22.2189 15.1206 25.1058 18.4055 25.1058C21.6897 25.1058 24.3622 22.2189 24.3622 18.6706C24.3622 15.1222 21.6897 12.2362 18.4055 12.2362M18.4053 26.2774C14.5224 26.2774 11.3633 22.8649 11.3633 18.6706C11.3633 14.4763 14.5224 11.0646 18.4053 11.0646C22.2883 11.0646 25.4467 14.4763 25.4467 18.6706C25.4467 22.8649 22.2883 26.2774 18.4053 26.2774" fill="#EAE8F0"/>
</g>
<mask id="mask1_1059_138" style="mask-type:luminance" maskUnits="userSpaceOnUse" x="22" y="23" width="5" height="5">
<path fill-rule="evenodd" clip-rule="evenodd" d="M22.3828 23.3326H26.0156V27.2495H22.3828V23.3326Z" fill="white"/>
</mask>
<g mask="url(#mask1_1059_138)">
<path fill-rule="evenodd" clip-rule="evenodd" d="M25.4734 27.2495C25.3353 27.2495 25.1965 27.1925 25.0902 27.0784L22.5421 24.3338C22.3302 24.1049 22.3295 23.7339 22.5413 23.5051C22.7525 23.2746 23.0959 23.2762 23.3085 23.5035L25.8567 26.2489C26.0685 26.4778 26.0692 26.848 25.8574 27.0769C25.7518 27.1925 25.6123 27.2495 25.4734 27.2495" fill="#EAE8F0"/>
</g>
</svg>

<svg xmlns="http://www.w3.org/2000/svg" width="38" height="39" fill="none"><rect width="37.583" height="37.886" y=".557" fill="#FF5B35" rx="15.167"/><mask id="a" width="15" height="16" x="11" y="11" maskUnits="userSpaceOnUse" style="mask-type:luminance"><path fill="#fff" fill-rule="evenodd" d="M11.364 11.065h14.083v15.212H11.364z" clip-rule="evenodd"/></mask><g mask="url(#a)"><path fill="#EAE8F0" fill-rule="evenodd" d="M18.406 12.236c-3.285 0-5.958 2.886-5.958 6.435s2.673 6.435 5.958 6.435c3.284 0 5.956-2.887 5.956-6.435 0-3.549-2.672-6.435-5.956-6.435m0 14.041c-3.884 0-7.043-3.412-7.043-7.606 0-4.195 3.16-7.606 7.042-7.606 3.883 0 7.042 3.411 7.042 7.606 0 4.194-3.159 7.606-7.042 7.606" clip-rule="evenodd"/></g><mask id="b" width="5" height="5" x="22" y="23" maskUnits="userSpaceOnUse" style="mask-type:luminance"><path fill="#fff" fill-rule="evenodd" d="M22.383 23.333h3.633v3.917h-3.633z" clip-rule="evenodd"/></mask><g mask="url(#b)"><path fill="#EAE8F0" fill-rule="evenodd" d="M25.473 27.25a.52.52 0 0 1-.383-.172l-2.548-2.744a.62.62 0 0 1 0-.829.514.514 0 0 1 .766-.002l2.549 2.746c.212.229.212.599 0 .828a.52.52 0 0 1-.384.172" clip-rule="evenodd"/></g></svg>
